X: 339
T: I'M WEARY OF LIFE
T: Taim cuirthadh dn saoghal
B: O'Neill's 339
M: 3/4
L: 1/8
Z: 1999 by John Chambers <jc@trillian.mit.edu>
N: "Slow with feeling"
N: "Collected by J.O'Neill"
N: Irregular phrasing.
K:G
(ga) \
|b2 a2 gf|d2 B3 .d|e2 d2 BG|A2 .G2 .G2|G4 dc|
|B2 GA Bc|d4 fg|a2 b2 g2|f2 d2 e2|d3 edc|
|B2 G2 Bc|ed4 fg|a2 Hb2 .a.g|f2 de fa|g4 ga|
|b2 a2 gf|d2 B3 d|e2 d2 BG|BA2 .G2 .G2|G4||
